X:449
T: "Vaterlands - Lied"
N: Z1129
O: Europa, Mitteleuropa, Deutschland
R: Vaterland und Wehr
M: 4/4
L: 1/16
K: E
E4G4 | F4B4G4F2E2 | F4B4
G4c4 | B4B4B4^A4 | B8
E4G4 | F4B4G4F2E2 | F4B4
G4c4 | B4B4B4^A4 | B8
B4e2B2 | c4B4G2B2e2B2 | c4B4
G2B2e2d2 | d2c2c2B2B2A2G2AB | F8
B4E4 | F4E4B2G2F2E2 | F2D2E4
B4E2F2 | D2A2G2F2G4F2E2 | E8

